groups/aromatics/trityl.svg

<svg height="256" viewBox="0 0 256 256" width="256" xmlns="http://www.w3.org/2000/svg"><path d="m0 0h256v256h-256z" fill="#fff"/><g fill="none" stroke-width="2"><path d="m115.4 183.8 20.7-35.5" stroke="#000"/><path d="m136.1 148.3-41.1-.2" stroke="#000"/><path d="m95 148.1-20.5-35.6" stroke="#000"/><path d="m87.9 148.1-16.9-29.5" stroke="#000"/><path d="m74.5 112.5-41.1-.1" stroke="#000"/><path d="m33.4 112.4-20.6 35.5" stroke="#000"/><path d="m37 118.5-17.1 29.4" stroke="#000"/><path d="m12.8 147.9 20.4 35.6" stroke="#000"/><path d="m33.2 183.5 41.1.2" stroke="#000"/><path d="m36.8 177.4 34 .1" stroke="#000"/><path d="m136.1 148.3 35.5 20.6" stroke="#000"/><path d="m171.6 168.9-.1 41.1" stroke="#000"/><path d="m177.8 172.5-.1 33.9" stroke="#000"/><path d="m171.5 210 35.5 20.6" stroke="#000"/><path d="m207 230.6 35.7-20.4" stroke="#000"/><path d="m207.1 223.5 29.4-16.9" stroke="#000"/><path d="m242.7 210.2.1-41.1" stroke="#000"/><path d="m242.8 169.1-35.5-20.6" stroke="#000"/><path d="m236.6 172.6-29.4-17" stroke="#000"/><path d="m136.1 148.3.1-41.1" stroke="#000"/><path d="m136.2 107.2 35.6-20.5" stroke="#000"/><path d="m136.2 100 29.5-16.9" stroke="#000"/><path d="m171.8 86.7.2-41.1" stroke="#000"/><path d="m172 45.6-35.6-20.6" stroke="#000"/><path d="m165.8 49.2-29.4-17.1" stroke="#000"/><path d="m136.4 25-35.6 20.4" stroke="#000"/><path d="m100.8 45.4-.1 41.1" stroke="#000"/><path d="m106.9 49-.1 34" stroke="#000"/><path d="m74.3 183.7 20.7-35.6" stroke="#000"/><path d="m207.3 148.5-35.7 20.4" stroke="#000"/><path d="m100.7 86.5 35.5 20.7" stroke="#000"/><path d="m75.6 114.3-1.1-1.8h-2" stroke="#000" stroke-miterlimit="10"/><path d="m35.5 112.4h-2.1l-1 1.7" stroke="#000" stroke-miterlimit="10"/><path d="m13.8 146.1-1 1.8 1 1.8" stroke="#000" stroke-miterlimit="10"/><path d="m32.2 181.8 1 1.7 2.1.1" stroke="#000" stroke-miterlimit="10"/><path d="m72.3 183.7h2l1.1-1.8" stroke="#000" stroke-miterlimit="10"/><path d="m171.5 207.9v2.1l1.8 1" stroke="#000" stroke-miterlimit="10"/><path d="m205.3 229.6 1.7 1 1.8-1" stroke="#000" stroke-miterlimit="10"/><path d="m240.9 211.2 1.8-1v-2.1" stroke="#000" stroke-miterlimit="10"/><path d="m242.8 171.2v-2.1l-1.8-1" stroke="#000" stroke-miterlimit="10"/><path d="m209 149.5-1.7-1-1.8 1" stroke="#000" stroke-miterlimit="10"/><path d="m170.1 87.7 1.7-1 .1-2" stroke="#000" stroke-miterlimit="10"/><path d="m172 47.7v-2.1l-1.8-1" stroke="#000" stroke-miterlimit="10"/><path d="m138.2 26-1.8-1-1.8 1" stroke="#000" stroke-miterlimit="10"/><path d="m102.6 44.4-1.8 1v2.1" stroke="#000" stroke-miterlimit="10"/><path d="m100.7 84.5v2l1.7 1" stroke="#000" stroke-miterlimit="10"/><path d="m133.205 194.112c.774-1.333-1.003-2.365-1.777-1.033-.774 1.333-2.551.3-1.777-1.032.775-1.333-1.002-2.365-1.776-1.033-.775 1.333-2.551.301-1.777-1.032.774-1.332-1.002-2.365-1.777-1.032-.774 1.332-2.551.3-1.776-1.033.774-1.332-1.003-2.365-1.777-1.032-.774 1.332-2.551.3-1.777-1.033.774-1.332-1.002-2.364-1.777-1.032-.774 1.333-2.551.3-1.776-1.032.774-1.333-1.003-2.365-1.777-1.033-.774 1.333-2.551.3-1.777-1.032.775-1.333-1.002-2.365-1.776-1.033-.775 1.333-2.551.3-1.777-1.032.774-1.333-1.003-2.365-1.777-1.032-.774 1.332-2.551.3-1.777-1.033.775-1.332-1.002-2.365-1.776-1.032-.775 1.332-2.551.3-1.777-1.033.774-1.332-1.002-2.365-1.777-1.032-.774 1.332-2.551.3-1.776-1.032" stroke="#7f7f7f"/></g></svg>

<?xml version='1.0' encoding='iso-8859-1'?>
<svg version='1.1' baseProfile='full'
              xmlns='http://www.w3.org/2000/svg'
                      xmlns:rdkit='http://www.rdkit.org/xml'
                      xmlns:xlink='http://www.w3.org/1999/xlink'
                  xml:space='preserve'
width='256px' height='256px' viewBox='0 0 256 256'>
<!-- END OF HEADER -->
<rect style='opacity:1.0;fill:#FFFFFF;stroke:none' width='256.0' height='256.0' x='0.0' y='0.0'> </rect>
<path class='bond-0 atom-0 atom-1' d='M 115.4,183.8 L 136.1,148.3' style='fill:none;fill-rule:evenodd;stroke:#000000;stroke-width:2.0px;stroke-linecap:butt;stroke-linejoin:miter;stroke-opacity:1' />
<path class='bond-1 atom-1 atom-2' d='M 136.1,148.3 L 95.0,148.1' style='fill:none;fill-rule:evenodd;stroke:#000000;stroke-width:2.0px;stroke-linecap:butt;stroke-linejoin:miter;stroke-opacity:1' />
<path class='bond-2 atom-2 atom-3' d='M 95.0,148.1 L 74.5,112.5' style='fill:none;fill-rule:evenodd;stroke:#000000;stroke-width:2.0px;stroke-linecap:butt;stroke-linejoin:miter;stroke-opacity:1' />
<path class='bond-2 atom-2 atom-3' d='M 87.9,148.1 L 71.0,118.6' style='fill:none;fill-rule:evenodd;stroke:#000000;stroke-width:2.0px;stroke-linecap:butt;stroke-linejoin:miter;stroke-opacity:1' />
<path class='bond-3 atom-3 atom-4' d='M 74.5,112.5 L 33.4,112.4' style='fill:none;fill-rule:evenodd;stroke:#000000;stroke-width:2.0px;stroke-linecap:butt;stroke-linejoin:miter;stroke-opacity:1' />
<path class='bond-4 atom-4 atom-5' d='M 33.4,112.4 L 12.8,147.9' style='fill:none;fill-rule:evenodd;stroke:#000000;stroke-width:2.0px;stroke-linecap:butt;stroke-linejoin:miter;stroke-opacity:1' />
<path class='bond-4 atom-4 atom-5' d='M 37.0,118.5 L 19.9,147.9' style='fill:none;fill-rule:evenodd;stroke:#000000;stroke-width:2.0px;stroke-linecap:butt;stroke-linejoin:miter;stroke-opacity:1' />
<path class='bond-5 atom-5 atom-6' d='M 12.8,147.9 L 33.2,183.5' style='fill:none;fill-rule:evenodd;stroke:#000000;stroke-width:2.0px;stroke-linecap:butt;stroke-linejoin:miter;stroke-opacity:1' />
<path class='bond-6 atom-6 atom-7' d='M 33.2,183.5 L 74.3,183.7' style='fill:none;fill-rule:evenodd;stroke:#000000;stroke-width:2.0px;stroke-linecap:butt;stroke-linejoin:miter;stroke-opacity:1' />
<path class='bond-6 atom-6 atom-7' d='M 36.8,177.4 L 70.8,177.5' style='fill:none;fill-rule:evenodd;stroke:#000000;stroke-width:2.0px;stroke-linecap:butt;stroke-linejoin:miter;stroke-opacity:1' />
<path class='bond-7 atom-1 atom-8' d='M 136.1,148.3 L 171.6,168.9' style='fill:none;fill-rule:evenodd;stroke:#000000;stroke-width:2.0px;stroke-linecap:butt;stroke-linejoin:miter;stroke-opacity:1' />
<path class='bond-8 atom-8 atom-9' d='M 171.6,168.9 L 171.5,210.0' style='fill:none;fill-rule:evenodd;stroke:#000000;stroke-width:2.0px;stroke-linecap:butt;stroke-linejoin:miter;stroke-opacity:1' />
<path class='bond-8 atom-8 atom-9' d='M 177.8,172.5 L 177.7,206.4' style='fill:none;fill-rule:evenodd;stroke:#000000;stroke-width:2.0px;stroke-linecap:butt;stroke-linejoin:miter;stroke-opacity:1' />
<path class='bond-9 atom-9 atom-10' d='M 171.5,210.0 L 207.0,230.6' style='fill:none;fill-rule:evenodd;stroke:#000000;stroke-width:2.0px;stroke-linecap:butt;stroke-linejoin:miter;stroke-opacity:1' />
<path class='bond-10 atom-10 atom-11' d='M 207.0,230.6 L 242.7,210.2' style='fill:none;fill-rule:evenodd;stroke:#000000;stroke-width:2.0px;stroke-linecap:butt;stroke-linejoin:miter;stroke-opacity:1' />
<path class='bond-10 atom-10 atom-11' d='M 207.1,223.5 L 236.5,206.6' style='fill:none;fill-rule:evenodd;stroke:#000000;stroke-width:2.0px;stroke-linecap:butt;stroke-linejoin:miter;stroke-opacity:1' />
<path class='bond-11 atom-11 atom-12' d='M 242.7,210.2 L 242.8,169.1' style='fill:none;fill-rule:evenodd;stroke:#000000;stroke-width:2.0px;stroke-linecap:butt;stroke-linejoin:miter;stroke-opacity:1' />
<path class='bond-12 atom-12 atom-13' d='M 242.8,169.1 L 207.3,148.5' style='fill:none;fill-rule:evenodd;stroke:#000000;stroke-width:2.0px;stroke-linecap:butt;stroke-linejoin:miter;stroke-opacity:1' />
<path class='bond-12 atom-12 atom-13' d='M 236.6,172.6 L 207.2,155.6' style='fill:none;fill-rule:evenodd;stroke:#000000;stroke-width:2.0px;stroke-linecap:butt;stroke-linejoin:miter;stroke-opacity:1' />
<path class='bond-13 atom-1 atom-14' d='M 136.1,148.3 L 136.2,107.2' style='fill:none;fill-rule:evenodd;stroke:#000000;stroke-width:2.0px;stroke-linecap:butt;stroke-linejoin:miter;stroke-opacity:1' />
<path class='bond-14 atom-14 atom-15' d='M 136.2,107.2 L 171.8,86.7' style='fill:none;fill-rule:evenodd;stroke:#000000;stroke-width:2.0px;stroke-linecap:butt;stroke-linejoin:miter;stroke-opacity:1' />
<path class='bond-14 atom-14 atom-15' d='M 136.2,100.0 L 165.7,83.1' style='fill:none;fill-rule:evenodd;stroke:#000000;stroke-width:2.0px;stroke-linecap:butt;stroke-linejoin:miter;stroke-opacity:1' />
<path class='bond-15 atom-15 atom-16' d='M 171.8,86.7 L 172.0,45.6' style='fill:none;fill-rule:evenodd;stroke:#000000;stroke-width:2.0px;stroke-linecap:butt;stroke-linejoin:miter;stroke-opacity:1' />
<path class='bond-16 atom-16 atom-17' d='M 172.0,45.6 L 136.4,25.0' style='fill:none;fill-rule:evenodd;stroke:#000000;stroke-width:2.0px;stroke-linecap:butt;stroke-linejoin:miter;stroke-opacity:1' />
<path class='bond-16 atom-16 atom-17' d='M 165.8,49.2 L 136.4,32.1' style='fill:none;fill-rule:evenodd;stroke:#000000;stroke-width:2.0px;stroke-linecap:butt;stroke-linejoin:miter;stroke-opacity:1' />
<path class='bond-17 atom-17 atom-18' d='M 136.4,25.0 L 100.8,45.4' style='fill:none;fill-rule:evenodd;stroke:#000000;stroke-width:2.0px;stroke-linecap:butt;stroke-linejoin:miter;stroke-opacity:1' />
<path class='bond-18 atom-18 atom-19' d='M 100.8,45.4 L 100.7,86.5' style='fill:none;fill-rule:evenodd;stroke:#000000;stroke-width:2.0px;stroke-linecap:butt;stroke-linejoin:miter;stroke-opacity:1' />
<path class='bond-18 atom-18 atom-19' d='M 106.9,49.0 L 106.8,83.0' style='fill:none;fill-rule:evenodd;stroke:#000000;stroke-width:2.0px;stroke-linecap:butt;stroke-linejoin:miter;stroke-opacity:1' />
<path class='bond-19 atom-7 atom-2' d='M 74.3,183.7 L 95.0,148.1' style='fill:none;fill-rule:evenodd;stroke:#000000;stroke-width:2.0px;stroke-linecap:butt;stroke-linejoin:miter;stroke-opacity:1' />
<path class='bond-20 atom-13 atom-8' d='M 207.3,148.5 L 171.6,168.9' style='fill:none;fill-rule:evenodd;stroke:#000000;stroke-width:2.0px;stroke-linecap:butt;stroke-linejoin:miter;stroke-opacity:1' />
<path class='bond-21 atom-19 atom-14' d='M 100.7,86.5 L 136.2,107.2' style='fill:none;fill-rule:evenodd;stroke:#000000;stroke-width:2.0px;stroke-linecap:butt;stroke-linejoin:miter;stroke-opacity:1' />
<path d='M 75.6,114.3 L 74.5,112.5 L 72.5,112.5' style='fill:none;stroke:#000000;stroke-width:2.0px;stroke-linecap:butt;stroke-linejoin:miter;stroke-miterlimit:10;stroke-opacity:1;' />
<path d='M 35.5,112.4 L 33.4,112.4 L 32.4,114.1' style='fill:none;stroke:#000000;stroke-width:2.0px;stroke-linecap:butt;stroke-linejoin:miter;stroke-miterlimit:10;stroke-opacity:1;' />
<path d='M 13.8,146.1 L 12.8,147.9 L 13.8,149.7' style='fill:none;stroke:#000000;stroke-width:2.0px;stroke-linecap:butt;stroke-linejoin:miter;stroke-miterlimit:10;stroke-opacity:1;' />
<path d='M 32.2,181.8 L 33.2,183.5 L 35.3,183.6' style='fill:none;stroke:#000000;stroke-width:2.0px;stroke-linecap:butt;stroke-linejoin:miter;stroke-miterlimit:10;stroke-opacity:1;' />
<path d='M 72.3,183.7 L 74.3,183.7 L 75.4,181.9' style='fill:none;stroke:#000000;stroke-width:2.0px;stroke-linecap:butt;stroke-linejoin:miter;stroke-miterlimit:10;stroke-opacity:1;' />
<path d='M 171.5,207.9 L 171.5,210.0 L 173.3,211.0' style='fill:none;stroke:#000000;stroke-width:2.0px;stroke-linecap:butt;stroke-linejoin:miter;stroke-miterlimit:10;stroke-opacity:1;' />
<path d='M 205.3,229.6 L 207.0,230.6 L 208.8,229.6' style='fill:none;stroke:#000000;stroke-width:2.0px;stroke-linecap:butt;stroke-linejoin:miter;stroke-miterlimit:10;stroke-opacity:1;' />
<path d='M 240.9,211.2 L 242.7,210.2 L 242.7,208.1' style='fill:none;stroke:#000000;stroke-width:2.0px;stroke-linecap:butt;stroke-linejoin:miter;stroke-miterlimit:10;stroke-opacity:1;' />
<path d='M 242.8,171.2 L 242.8,169.1 L 241.0,168.1' style='fill:none;stroke:#000000;stroke-width:2.0px;stroke-linecap:butt;stroke-linejoin:miter;stroke-miterlimit:10;stroke-opacity:1;' />
<path d='M 209.0,149.5 L 207.3,148.5 L 205.5,149.5' style='fill:none;stroke:#000000;stroke-width:2.0px;stroke-linecap:butt;stroke-linejoin:miter;stroke-miterlimit:10;stroke-opacity:1;' />
<path d='M 170.1,87.7 L 171.8,86.7 L 171.9,84.7' style='fill:none;stroke:#000000;stroke-width:2.0px;stroke-linecap:butt;stroke-linejoin:miter;stroke-miterlimit:10;stroke-opacity:1;' />
<path d='M 172.0,47.7 L 172.0,45.6 L 170.2,44.6' style='fill:none;stroke:#000000;stroke-width:2.0px;stroke-linecap:butt;stroke-linejoin:miter;stroke-miterlimit:10;stroke-opacity:1;' />
<path d='M 138.2,26.0 L 136.4,25.0 L 134.6,26.0' style='fill:none;stroke:#000000;stroke-width:2.0px;stroke-linecap:butt;stroke-linejoin:miter;stroke-miterlimit:10;stroke-opacity:1;' />
<path d='M 102.6,44.4 L 100.8,45.4 L 100.8,47.5' style='fill:none;stroke:#000000;stroke-width:2.0px;stroke-linecap:butt;stroke-linejoin:miter;stroke-miterlimit:10;stroke-opacity:1;' />
<path d='M 100.7,84.5 L 100.7,86.5 L 102.4,87.5' style='fill:none;stroke:#000000;stroke-width:2.0px;stroke-linecap:butt;stroke-linejoin:miter;stroke-miterlimit:10;stroke-opacity:1;' />
<path class='atom-1' d='M133.205,194.112 C133.979,192.779 132.202,191.747 131.428,193.079 C130.654,194.412 128.877,193.379 129.651,192.047 C130.426,190.714 128.649,189.682 127.875,191.014 C127.1,192.347 125.324,191.315 126.098,189.982 C126.872,188.65 125.096,187.617 124.321,188.95 C123.547,190.282 121.77,189.25 122.545,187.917 C123.319,186.585 121.542,185.552 120.768,186.885 C119.994,188.217 118.217,187.185 118.991,185.852 C119.765,184.52 117.989,183.488 117.214,184.82 C116.44,186.153 114.663,185.12 115.438,183.788 C116.212,182.455 114.435,181.423 113.661,182.755 C112.887,184.088 111.11,183.055 111.884,181.723 C112.659,180.39 110.882,179.358 110.108,180.69 C109.333,182.023 107.557,180.99 108.331,179.658 C109.105,178.325 107.328,177.293 106.554,178.626 C105.78,179.958 104.003,178.926 104.777,177.593 C105.552,176.261 103.775,175.228 103.001,176.561 C102.226,177.893 100.45,176.861 101.224,175.528 C101.998,174.196 100.222,173.163 99.4473,174.496 C98.673,175.828 96.8963,174.796 97.6706,173.464' style='fill:none;stroke:#7F7F7F;stroke-width:2.0px;stroke-linecap:butt;stroke-linejoin:miter;stroke-opacity:1' />
</svg>
